tools/download-figma-icons/icons/solid/water-drops.svg

<svg width="24" height="24" viewBox="0 0 24 24" fill="none" xmlns="http://www.w3.org/2000/svg">
<path fill-rule="evenodd" clip-rule="evenodd" d="M17.3551 10.4806C19.5451 10.4806 21.3301 8.6956 21.3301 6.50485C21.3301 5.00485 19.6801 2.3881 18.2926 0.453099C17.8651 -0.155151 16.8526 -0.146901 16.4176 0.453099C15.0376 2.3881 13.3801 5.00485 13.3801 6.50485C13.3801 8.6956 15.1651 10.4806 17.3551 10.4806ZM4.19238 17.3202C4.19238 19.9152 6.30738 22.0227 8.90239 22.0227C9.31489 22.0227 9.65239 21.6927 9.65239 21.2727C9.65239 20.8602 9.31489 20.5227 8.90239 20.5227C7.13238 20.5227 5.69238 19.0902 5.69238 17.3202C5.69238 16.9002 5.35488 16.5702 4.94238 16.5702C4.52988 16.5702 4.19238 16.9002 4.19238 17.3202ZM8.90238 5.98022C9.38238 5.98022 9.83238 6.21272 10.1099 6.60272C12.1424 9.43772 15.5549 14.6127 15.5549 17.3202C15.5549 20.9877 12.5699 23.9727 8.90238 23.9727C5.23488 23.9727 2.24988 20.9877 2.24988 17.3202C2.24988 14.6052 5.66238 9.43772 7.69488 6.60272C7.97238 6.21272 8.42238 5.98022 8.90238 5.98022Z" fill="black"/>
</svg>

<svg width="24" height="24" viewBox="0 0 24 24" fill="none" xmlns="http://www.w3.org/2000/svg"><path fill-rule="evenodd" clip-rule="evenodd" d="M17.355 10.48a3.982 3.982 0 0 0 3.975-3.975c0-1.5-1.65-4.117-3.037-6.052-.428-.608-1.44-.6-1.875 0-1.38 1.935-3.038 4.552-3.038 6.052a3.982 3.982 0 0 0 3.975 3.976ZM4.192 17.32a4.712 4.712 0 0 0 4.71 4.703c.413 0 .75-.33.75-.75a.752.752 0 0 0-.75-.75 3.207 3.207 0 0 1-3.21-3.203c0-.42-.337-.75-.75-.75-.412 0-.75.33-.75.75Zm4.71-11.34c.48 0 .93.233 1.208.623 2.032 2.835 5.445 8.01 5.445 10.717a6.66 6.66 0 0 1-6.653 6.653A6.66 6.66 0 0 1 2.25 17.32c0-2.715 3.412-7.882 5.445-10.717.277-.39.727-.623 1.207-.623Z" fill="currentColor"/></svg>
